X:133
T: Der Spielmannssohn
N: Q1062G
O: Mitteleuropa, Deutschland / Frankreich, Lothringen
N: Melodievergleich zu Q0062, anderes Lied "Maler der Blumen" .
R: Legenden - Lied
M: 6/8
L: 1/16
K: F
F2 | A4G2A2A2G2 | A4B2c4
c2 | d2d2c2d2f2fe | d6c4
c2 | d3ddef2e2d2 | c2d2c2A4
c2 | d3ddef2e2d2 | c2d2c2A4
F2 | G3cc2c2B2A2 | G6F4

